svg/aws-ec2-m5.svg

<?xml version="1.0" encoding="UTF-8"?>
<svg xmlns="http://www.w3.org/2000/svg" xmlns:xlink="http://www.w3.org/1999/xlink" width="32" height="32" viewBox="0 0 32 32">
<path fill-rule="evenodd" fill="rgb(83.137255%, 35.686275%, 2.745098%)" fill-opacity="1" d="M 19.539062 19.378906 C 18.921875 19.382812 18.3125 19.253906 17.746094 19.003906 L 17.746094 18.125 C 18.425781 18.355469 19.011719 18.472656 19.507812 18.472656 C 20.429688 18.472656 20.890625 18.074219 20.890625 17.277344 C 20.890625 16.890625 20.773438 16.609375 20.542969 16.433594 C 20.3125 16.253906 19.941406 16.167969 19.433594 16.167969 C 19.058594 16.167969 18.585938 16.199219 18.015625 16.261719 L 18.015625 15.550781 L 18.191406 12.769531 L 21.703125 12.769531 L 21.703125 13.65625 L 19.234375 13.65625 L 19.125 15.382812 C 19.394531 15.332031 19.664062 15.304688 19.9375 15.308594 C 20.582031 15.308594 21.09375 15.480469 21.464844 15.832031 C 21.835938 16.179688 22.019531 16.65625 22.019531 17.257812 C 22.019531 17.90625 21.796875 18.421875 21.347656 18.804688 C 20.898438 19.1875 20.296875 19.378906 19.539062 19.378906 M 11.023438 19.238281 L 9.980469 19.238281 L 9.980469 12.769531 L 11.25 12.769531 L 13.191406 16.625 L 15.167969 12.769531 L 16.402344 12.769531 L 16.402344 19.238281 L 15.355469 19.238281 L 15.355469 14.394531 L 13.675781 17.613281 L 12.648438 17.613281 L 11.023438 14.410156 Z M 6 26 L 26 26 L 26 6 L 6 6 Z M 30.667969 8.667969 L 30.667969 7.332031 L 27.332031 7.332031 L 27.332031 5.332031 C 27.332031 4.964844 27.035156 4.667969 26.667969 4.667969 L 24.667969 4.667969 L 24.667969 1.332031 L 23.332031 1.332031 L 23.332031 4.667969 L 20.667969 4.667969 L 20.667969 1.332031 L 19.332031 1.332031 L 19.332031 4.667969 L 16.667969 4.667969 L 16.667969 1.332031 L 15.332031 1.332031 L 15.332031 4.667969 L 12.667969 4.667969 L 12.667969 1.332031 L 11.332031 1.332031 L 11.332031 4.667969 L 8.667969 4.667969 L 8.667969 1.332031 L 7.332031 1.332031 L 7.332031 4.667969 L 5.332031 4.667969 C 4.964844 4.667969 4.667969 4.964844 4.667969 5.332031 L 4.667969 7.332031 L 1.332031 7.332031 L 1.332031 8.667969 L 4.667969 8.667969 L 4.667969 11.332031 L 1.332031 11.332031 L 1.332031 12.667969 L 4.667969 12.667969 L 4.667969 15.332031 L 1.332031 15.332031 L 1.332031 16.667969 L 4.667969 16.667969 L 4.667969 19.332031 L 1.332031 19.332031 L 1.332031 20.667969 L 4.667969 20.667969 L 4.667969 23.332031 L 1.332031 23.332031 L 1.332031 24.667969 L 4.667969 24.667969 L 4.667969 26.667969 C 4.667969 27.035156 4.964844 27.332031 5.332031 27.332031 L 7.332031 27.332031 L 7.332031 30.667969 L 8.667969 30.667969 L 8.667969 27.332031 L 11.332031 27.332031 L 11.332031 30.667969 L 12.667969 30.667969 L 12.667969 27.332031 L 15.332031 27.332031 L 15.332031 30.667969 L 16.667969 30.667969 L 16.667969 27.332031 L 19.332031 27.332031 L 19.332031 30.667969 L 20.667969 30.667969 L 20.667969 27.332031 L 23.332031 27.332031 L 23.332031 30.667969 L 24.667969 30.667969 L 24.667969 27.332031 L 26.667969 27.332031 C 27.035156 27.332031 27.332031 27.035156 27.332031 26.667969 L 27.332031 24.667969 L 30.667969 24.667969 L 30.667969 23.332031 L 27.332031 23.332031 L 27.332031 20.667969 L 30.667969 20.667969 L 30.667969 19.332031 L 27.332031 19.332031 L 27.332031 16.667969 L 30.667969 16.667969 L 30.667969 15.332031 L 27.332031 15.332031 L 27.332031 12.667969 L 30.667969 12.667969 L 30.667969 11.332031 L 27.332031 11.332031 L 27.332031 8.667969 Z M 30.667969 8.667969 "/>
</svg>

<svg role="img" viewBox="0 0 32 32" xmlns="http://www.w3.org/2000/svg"><path d="M19.54 19.379a4.4 4.4 0 0 1-1.794-.375v-.879q1.019.346 1.762.348 1.383 0 1.383-1.196-.002-.58-.348-.843c-.23-.18-.602-.266-1.11-.266q-.562 0-1.417.094v-.711l.175-2.781h3.512v.886h-2.469l-.109 1.727a4 4 0 0 1 .813-.074c.644 0 1.156.171 1.527.523q.555.523.555 1.426 0 .972-.672 1.547-.673.574-1.809.574m-8.517-.14H9.98v-6.47h1.27l1.941 3.856 1.977-3.855h1.234v6.468h-1.047v-4.843l-1.68 3.218h-1.027l-1.625-3.203ZM6 26h20V6H6ZM30.668 8.668V7.332h-3.336v-2a.664.664 0 0 0-.664-.664h-2V1.332h-1.336v3.336h-2.664V1.332h-1.336v3.336h-2.664V1.332h-1.336v3.336h-2.664V1.332h-1.336v3.336H8.668V1.332H7.332v3.336h-2a.664.664 0 0 0-.664.664v2H1.332v1.336h3.336v2.664H1.332v1.336h3.336v2.664H1.332v1.336h3.336v2.664H1.332v1.336h3.336v2.664H1.332v1.336h3.336v2c0 .367.297.664.664.664h2v3.336h1.336v-3.336h2.664v3.336h1.336v-3.336h2.664v3.336h1.336v-3.336h2.664v3.336h1.336v-3.336h2.664v3.336h1.336v-3.336h2a.664.664 0 0 0 .664-.664v-2h3.336v-1.336h-3.336v-2.664h3.336v-1.336h-3.336v-2.664h3.336v-1.336h-3.336v-2.664h3.336v-1.336h-3.336V8.668Zm0 0" fill="rgb(83.137256%, 35.686275%, 2.745098%)" fill-rule="evenodd"/></svg>
